svgs/sharp-light/arrow-down-from-dotted-line.svg

<svg xmlns="http://www.w3.org/2000/svg" viewBox="0 0 448 512"><!--! Font Awesome Pro 6.6.0 by @fontawesome - https://fontawesome.com License - https://fontawesome.com/license (Commercial License) Copyright 2024 Fonticons, Inc. --><path d="M56 40l0 48L8 88 8 40l48 0zm96 0l0 48-48 0 0-48 48 0zm48 0l48 0 0 48-48 0 0-48zm144 0l0 48-48 0 0-48 48 0zm48 0l48 0 0 48-48 0 0-48zM235.3 467.3L224 478.6l-11.3-11.3-128-128L73.4 328 96 305.4l11.3 11.3L208 417.4 208 176l0-16 32 0 0 16 0 241.4L340.7 316.7 352 305.4 374.6 328l-11.3 11.3-128 128z"/></svg>

<svg xmlns="http://www.w3.org/2000/svg" viewBox="0 0 448 512"><!--! Font Awesome Pro 6.4.2 by @fontawesome - https://fontawesome.com License - https://fontawesome.com/license (Commercial License) Copyright 2023 Fonticons, Inc. --><path d="M56 40V88H8V40H56zm96 0V88H104V40h48zm48 0h48V88H200V40zm144 0V88H296V40h48zm48 0h48V88H392V40zM235.3 467.3L224 478.6l-11.3-11.3-128-128L73.4 328 96 305.4l11.3 11.3L208 417.4V176 160h32v16V417.4L340.7 316.7 352 305.4 374.6 328l-11.3 11.3-128 128z"/></svg>
